X:1
T: Carolan's Rambles to Teague
C:Turlough O'Carolan
M:3/4
L:1/8
Q:"Andante"
B:Henry Hudson - The Dublin Magazine (February, 1842)
Z:AK/Fiddler's Companion
K:Dmin
A2|d3 (e de)|f3 (agf)|e2 (c2 cd)|Tc3B A2|d3 (ede)|
f2-a.f.e.d|c2 (A2 A=B)|A4 (fg)|a3 (b ab)|g3 (a ga)|f3 (a gf)|e4 A2|
(ref)(gaf)|g^fga (3bag|a2d2 de|d4||A2|(def)(gaf)|(def)(gaf)|
e2(c2 cd)|Tc3B A2|(def)(gaf)|(def)(gaf)|e2 (A2 A=B)|A4 (fg)|
a3 (b ab)|g3 (a ga)|f3 (a gf)|e4 A2|(fef)(gaf)|(g^fga) (3b/a/g|
a2 (d2 de)|d4||"Adagio"A,2|D3 (E DE)|F2 (A GF)|E2 (C2 CD)|C3B,A,1||"Andsnte"d3 (e de)|
f2- a.f.e.d|c2 (A2 A=B)|A4 (fg)|a3 (b ab)|g3 (a ga)|f3 (a gf)|e4 A2|
(fef)(gaf)|g^fga (3bag|a2 d2 de|d4||A,2|(DEF)(EFD)|(DEF)(EFD)|
(A,=B,D)(B,CA,)|(A,=B,D)(B,CA,)|(DEF)(EFD)|(DEF)(EFD)|(CB,C)(DEC)|(CB,C)(DEC)|(FEF)(AGF)|
(EDE)(GFE)|(FEF)(AGF)|(EDE)(GFE)|(FEF)(AG^F)|G^FGBA^G|A2 (D2 DE)|D4||

